!!!COM: Bach, Johann Sebastian
!!!OPR: Joh. Seb. Bachs vierstimmige Choralges‰nge
!!!XEN: Four-part Chorales
!!!OTL: 30. Christus, der uns selig macht
!!!SCT: BWV 283
!!!SCA: Thematisch-systematisches Verzeichnis der musikalischen Werke Johann Sebastian Bach: Bach-Werke-Verzeichnis (Schmieder)
!!!YOR: Bach Gesellschaft Edition xxxix
!!!ENC: Steven Rasmussen
!!!CDT: 1685/3//-1750/7/28/
!!!OCY: Deutschland
!!!YEC: Copyright (c) 1994, 2000 Center for Computer Assisted Research in the Humanities
!!!YEM: Rights to all derivative editions reserved
!!!YEN: United States of America
**kern	**silbe	**kern	**kern	**silbe	**kern	**silbe
*I:[SOPRANO]	*I:[SOPRANO]	*I:[ALTO]	*I:[TENORE]	*I:[TENORE]	*I:[BASSO]	*I:[BASSO]
*clefG2	*	*clefG2	*clefGv2	*	*clefF4	*
*k[]	*	*k[]	*k[]	*	*k[]	*
*a:	*	*a:	*a:	*	*a:	*
*M4/4	*	*M4/4	*M4/4	*	*M4/4	*
=1-	=1-	=1-	=1-	=1-	=1-	=1-
4ee	Chri-	8g#L	4B	.	8EL	.
.	.	8aJ	.	.	8F#J	.
4ee	-stus,	8bL	8eL	.	8G#L	.
.	.	8g#J	8dJ	.	8EJ	.
4ee	der	4a	8cL	.	8AL	.
.	.	.	8dJ	.	8BJ	.
4ee	uns	4a	8eL	.	8cL	.
.	.	.	8cJ	.	8AJ	.
=2	=2	=2	=2	=2	=2	=2
4dd	se-	8aL	8cL	.	8F#L	.
.	.	8eJ	8BJ	.	8G#J	.
4cc	-lig	4e	8BL	.	8AL	.
.	.	.	8AJ	.	8AAJ	.
2b;	macht,	2e;	(4A	.	2E;	.
.	.	.	4G#;)	.	.	.
=3	=3	=3	=3	=3	=3	=3
4a	kein	8cL	4A	.	4F	.
.	.	8dJ	.	.	.	.
4g#	B√∂s's	4e	4B	.	8EL	.
.	.	.	.	.	8DJ	.
4a	hat	8eL	4c	.	4C	.
.	.	8f#J	.	.	.	.
8bL	be-	8g#L	8dL	.	8BBL	.
8ccJ	.	8aJ	8eJ	.	8AAJ	.
=4	=4	=4	=4	=4	=4	=4
4dd	-gan-	4.b	8fL	.	8AAL	.
.	.	.	[8eJ	.	8GG#	.
4cc	.	.	4e]	.	8AA	.
.	.	8a	.	.	8CJ	.
2b;	-gen,	(4a	2e;	.	2E;	.
.	.	4g#;)	.	.	.	.
=5	=5	=5	=5	=5	=5	=5
4a	der	8aL	4c	.	8FL	.
.	.	8gJ	.	.	8EJ	.
4b	ward	4f	4d	.	4D	.
8ccL	f√ºr	4g	4c	.	4E	.
8bJ	.	.	.	.	.	.
4a	uns	8gL	8cL	.	4F	.
.	.	8fJ	8dJ	.	.	.
=6	=6	=6	=6	=6	=6	=6
8aL	in	4e	4A	.	4C#	.
8gJ	.	.	.	.	.	.
4f	der	8eL	4A	.	4D	.
.	.	8dJ	.	.	.	.
2e;	Nacht	2c#;	2A;	.	2AA;	.
=7	=7	=7	=7	=7	=7	=7
4d	als	8dL	8FL	.	4BB-	.
.	.	8GJ	8DJ	.	.	.
4c#	ein	4A	4E	.	8AAL	.
.	.	.	.	.	8GGJ	.
4d	Dieb	8AL	4F	.	4FF	.
.	.	8BJ	.	.	.	.
8eL	ge-	8c#L	8GL	.	8EEL	.
8fJ	.	8dJ	8AJ	.	8DDJ	.
=8	=8	=8	=8	=8	=8	=8
4g	-fan-	4.e	8B-L	.	8DDL	.
.	.	.	[8AJ	.	8CC#	.
4f	.	.	4A]	.	8DD	.
.	.	8d	.	.	8FFJ	.
2e;	-gen,	2c#;	2A;	.	2AA;	.
=9	=9	=9	=9	=9	=9	=9
4a	ge-	4c	8AL	.	8FFL	.
.	.	.	8B-J	.	8GGJ	.
4a	-f√ºhrt	4f	4c	.	8AAL	.
.	.	.	.	.	8BB-J	.
4a	vor	8fL	4.c	.	4.C	.
.	.	16eL	.	.	.	.
.	.	16dJJ	.	.	.	.
4g	gott-	4e	.	.	.	.
.	.	.	8B-	.	8C#	.
=10	=10	=10	=10	=10	=10	=10
4f	-lo-	(8e	4.A	.	4D	.
.	.	4d)	.	.	.	.
4e	-se	.	.	.	4AA	.
.	.	8c#	16ALL	.	.	.
.	.	.	16GJJ	.	.	.
2d;	Leut'	2d;	2F;	.	2DD;	.
=11	=11	=11	=11	=11	=11	=11
4g	und	8BL	8GL	.	4E	.
.	.	8eJ	8cJ	.	.	.
4a	f√§lsch-	8eL	8cL	.	4F#	.
.	.	8dJ	16dL	.	.	.
.	.	.	16cJJ	.	.	.
4b	-lich	4d	8BL	.	8GL	.
.	.	.	8dJ	.	8FnJ	.
4cc	ver-	4e	8GL	.	4E	.
.	.	.	8cJ	.	.	.
=12	=12	=12	=12	=12	=12	=12
4dd	-kla-	8fL	8cL	.	8DL	.
.	.	[8g	8B	.	8GJ	.
4ee	.	8g]	8c	.	[4C	.
.	.	[8aJ	8eJ	.	.	.
4dd	.	8aL]	4.f	.	8CL]	.
.	.	[8gJ	.	.	8BB	.
4cc	.	4g]	.	.	8C	.
.	.	.	8e	.	8EJ	.
=13	=13	=13	=13	=13	=13	=13
2b;	-get,	2g;	2d;	.	2G;	.
4a	ver-	8eL	4c	.	4A	.
.	.	8f#J	.	.	.	.
4b	-lacht,	4g	4d	.	8GL	.
.	.	.	.	.	8FJ	.
=14	=14	=14	=14	=14	=14	=14
8ccL	ver-	4g	4.c	.	4E	.
8bJ	.	.	.	.	.	.
4a	-h√∂hnt,	8aL	.	.	8FL	.
.	.	8gJ	8c#	.	8EJ	.
8aL	und	8fL	4d	.	8DL	.
8gJ	.	8eJ	.	.	8EJ	.
4f	ver-	4d	4A	.	8FL	.
.	.	.	.	.	8GJ	.
=15	=15	=15	=15	=15	=15	=15
2e;	-speit,	(4d	2A;	.	2A;	.
.	.	4c#;)	.	.	.	.
4d	wie	8dL	4A	.	4F	.
.	.	8AJ	.	.	.	.
4c#	denn	8B-L	8GL	.	4E	.
.	.	8GJ	8EJ	.	.	.
=16	=16	=16	=16	=16	=16	=16
4d	die	8AL	(4F	die	4D	.
.	.	8BJ	.	.	.	.
8eL	Schrift	8cL	4G)	.	[4C	Schrift
8fJ	.	8dJ	.	.	.	.
4g	sa-	4e	4c	Schrift	8CL]	.
.	.	.	.	.	8BB-J	.
4a	.	[4f	[4c	sa-	8AAL	sa-
.	.	.	.	.	8FFJ	.
=17	=17	=17	=17	=17	=17	=17
4g	.	8f]	8.cL]	.	4C	.
.	.	4e	.	.	.	.
.	.	.	16B-Jk	.	.	.
4f	.	.	8AL	.	4D	.
.	.	16dLL	16BnL	.	.	.
.	.	16cJJ	16AJJ	.	.	.
2e;	-get.	2B;	2G#;	-get.	2E;	-get.
==|!	==|!	==|!	==|!	==|!	==|!	==|!
*-	*-	*-	*-	*-	*-	*-
!!!RWG: Key is interpreted using the Humdrum key tool.
!!!END: 1994/05/11
!!!EMD: Converted from MuseData to Humdrum Dec 19, 2000, by Andreas Kornstaedt using muse2kern.
!!!EED: Craig Stuart Sapp
!!!EEV: 2024/03/31
!!!ONB: Some non-unicode characters
